svgs/sharp-solid/transporter-3.svg

<svg xmlns="http://www.w3.org/2000/svg" viewBox="0 0 512 512"><!--! Font Awesome Pro 6.6.0 by @fontawesome - https://fontawesome.com License - https://fontawesome.com/license (Commercial License) Copyright 2024 Fonticons, Inc. --><path d="M256 96a48 48 0 1 0 0-96 48 48 0 1 0 0 96zM96 512l120 0 80 0 120 0 0-64L96 448l0 64zm0-256.5c0 .3 0 .7 0 1L96 288l16 0 288 0 16 0 0-32-16 0-288 0-16 0 0-.5zM464 0L448 32 416 48l32 16 16 32 16-32 32-16L480 32 464 0zM64 128L48 96 32 128 0 144l32 16 16 32 16-32 32-16L64 128zm112 0l-16 0 0 32 16 0 160 0 16 0 0-32-16 0-160 0zm-32 64l-16 0 0 32 16 0 224 0 16 0 0-32-16 0-224 0zm32 128l-16 0 0 32 16 0 160 0 16 0 0-32-16 0-160 0zm0 64l-16 0 0 32 16 0 160 0 16 0 0-32-16 0-160 0z"/></svg>

<svg xmlns="http://www.w3.org/2000/svg" viewBox="0 0 512 512"><!--! Font Awesome Pro 6.4.2 by @fontawesome - https://fontawesome.com License - https://fontawesome.com/license (Commercial License) Copyright 2023 Fonticons, Inc. --><path d="M256 96a48 48 0 1 0 0-96 48 48 0 1 0 0 96zM96 512H216h80H416V448H96v64zm0-256.5c0 .3 0 .7 0 1V288h16H400h16V256H400 112 96v-.5zM464 0L448 32 416 48l32 16 16 32 16-32 32-16L480 32 464 0zM64 128L48 96 32 128 0 144l32 16 16 32 16-32 32-16L64 128zm112 0H160v32h16H336h16V128H336 176zm-32 64H128v32h16H368h16V192H368 144zm32 128H160v32h16H336h16V320H336 176zm0 64H160v32h16H336h16V384H336 176z"/></svg>
